X: 877
T:Scotch Mary
S:CD, Manran by Manran
Z:https://nigelgatherer.com/
M:4/4
L:1/8
K:Amix
ceed ceed | cAEF G4 | ceed ceed | (3cBA BG A2 A2 :|
a3 g efed | cdef g2 fg | eaab aged | (3cBA BG A2 A2 |
a3 g efed | cdef g2 fg | afge faed | (3cBA BG A2 A2 |]

